homeworks/Andrii.Morozov_AndriiMorozov88/8-css-variables/sprite.svg

<svg xmlns="http://www.w3.org/2000/svg">
<defs>
<symbol id="logo" viewBox="0 0 62 28">
<path d="M13.9994 12.68L9.68692 0.524902H7.27855L3.04845 12.3095C2.328 14.3473 1.98836 14.7178 0.917969 14.9134V15.4177H5.04514V14.9134C3.63511 14.6973 3.42927 14.2444 4.03651 12.3506L4.7055 10.3231H9.3164L10.078 12.5874C10.6338 14.2753 10.3765 14.7178 9.06939 14.9134V15.4177H15.9857V14.9134C14.9462 14.7178 14.586 14.3267 13.9994 12.68ZM4.93193 9.60262L6.98007 3.32438L9.07968 9.60262H4.93193Z" />
<path d="M20.0005 5.05347L15.4514 5.60925V6.08269L15.9763 6.24736C16.5424 6.44292 16.635 6.58701 16.635 7.256V13.8018C16.635 14.5223 16.4703 14.7487 15.4514 14.9134V15.4177H21.3385V14.9134C20.2064 14.7281 20.0211 14.512 20.0211 13.6989V8.3058C20.474 7.88382 21.5135 7.61623 22.5324 7.61623C23.1191 7.61623 23.716 7.70886 24.0145 7.82207C24.138 7.57506 24.2512 7.14279 24.2512 6.70022C24.2512 5.77392 23.8086 5.03289 22.8823 5.03289C21.8428 5.03289 20.9783 5.90772 19.9902 7.95587L20.0005 5.05347Z" />
<path d="M29.5628 15.6236C31.4154 15.6236 32.9592 14.9134 33.7209 13.8224V13.3181C33.2062 13.8224 32.3108 14.1621 31.3125 14.1621C29.2643 14.1621 27.6073 12.5462 27.6073 9.71584C27.6073 7.35892 28.8424 5.85626 30.7052 5.85626C31.261 5.85626 31.755 5.99006 32.1462 6.23707C32.1256 6.22678 32.1153 6.22678 32.0947 6.22678C31.3022 6.22678 30.6538 6.88548 30.6538 7.71915C30.6538 8.55282 31.3228 9.21152 32.1667 9.21152C32.9901 9.21152 33.6797 8.56311 33.6797 7.6574C33.6797 6.17532 32.2697 4.99172 29.7892 4.99172C26.5163 4.99172 24.1079 7.17366 24.1079 10.3231C24.1079 13.5857 26.5266 15.6236 29.5628 15.6236Z" />
<path d="M38.4458 0L33.8761 0.555779V1.02922L34.401 1.20419C34.9773 1.39974 35.0597 1.54383 35.0597 2.21282V13.7813C35.0597 14.5223 34.8744 14.7384 33.8761 14.9134V15.4177H39.475V14.9134C38.5796 14.7487 38.4458 14.5635 38.4458 13.843V7.36921C38.7546 6.79285 39.403 6.40175 40.2469 6.40175C41.41 6.40175 42.0892 7.09132 42.0892 8.47048V13.843C42.0892 14.5635 41.9349 14.759 41.06 14.9134V15.4177H46.659V14.9134C45.64 14.7384 45.4651 14.5223 45.4651 13.7813V8.27493C45.4651 6.05181 44.055 4.99172 41.9657 4.99172C40.2263 4.99172 38.9604 5.78422 38.4252 6.94723L38.4458 0Z" />
<path d="M15.1799 17.4299L10.6307 17.9857V18.4591L11.1556 18.6238C11.732 18.8194 11.8143 18.9635 11.8143 19.6324V26.1577C11.8143 26.8987 11.6291 27.1149 10.6307 27.2898V27.7942H16.2297V27.2898C15.3343 27.1355 15.2005 26.9399 15.2005 26.2195V19.7457C15.5092 19.1796 16.0959 18.7782 16.9296 18.7782C18.0102 18.7782 18.6278 19.4575 18.6278 20.8263V26.2195C18.6278 26.9399 18.5043 27.1355 17.6088 27.2898V27.7942H23.0431V27.2898C22.1477 27.1355 22.0139 26.9399 22.0139 26.2195V20.4764C22.0139 20.1882 21.9933 19.9412 21.9419 19.6942C22.2609 19.1384 22.8785 18.7782 23.7121 18.7782C24.8031 18.7782 25.4412 19.4575 25.4412 20.8263V26.2195C25.4412 26.9399 25.3074 27.1252 24.412 27.2898V27.7942H30.0109V27.2898C29.0023 27.1149 28.8273 26.8987 28.8273 26.1577V20.6308C28.8273 18.4591 27.4791 17.3682 25.4309 17.3682C23.7121 17.3682 22.3844 18.1915 21.8801 19.3546C21.5096 18.068 20.2951 17.3682 18.6792 17.3682C16.9296 17.3682 15.6739 18.1915 15.1799 19.3443V17.4299Z" />
<path d="M36.0018 28C39.3159 28 41.7963 25.7975 41.7963 22.6378C41.7963 19.4163 39.3365 17.3682 36.043 17.3682C32.7392 17.3682 30.2588 19.5604 30.2588 22.7201C30.2588 25.9519 32.7186 28 36.0018 28ZM36.0739 27.3207C34.6947 27.3207 33.8405 25.5505 33.8405 22.6069C33.8405 19.7662 34.5815 18.0474 35.9812 18.0474C37.3501 18.0474 38.2044 19.8074 38.2044 22.751C38.2044 25.5916 37.4633 27.3207 36.0739 27.3207Z" />
<path d="M42.7543 19.7662L45.842 27.8147H47.6946L50.6382 20.1882C51.2763 18.5312 51.5645 18.243 52.3878 18.0783V17.5637H48.9502V18.0783C50.1133 18.243 50.2471 18.5724 49.7633 20.1059L48.1372 24.9844L46.511 20.0853C46.0375 18.5724 46.1713 18.2327 47.3652 18.0783V17.5637H41.1796V18.0783C41.9927 18.2533 42.2706 18.5415 42.7543 19.7662Z" />
<path d="M51.5859 22.6995C51.5859 25.9724 54.0045 28 57.0716 28C58.986 28 60.5504 27.3104 61.3017 26.1783L61.2914 25.674C60.7768 26.1989 59.9123 26.5797 58.9036 26.5797C56.8246 26.5797 55.2911 25.0667 55.0235 22.3908H61.4355C61.4561 22.2158 61.487 21.9482 61.487 21.6806C61.487 19.1281 59.7785 17.3682 56.9275 17.3682C53.7164 17.3682 51.5859 19.5707 51.5859 22.6995ZM54.972 21.5056C54.972 19.2928 55.6822 18.0474 56.9275 18.0474C58.0185 18.0474 58.5125 19.2208 58.5125 21.0528C58.5125 21.3512 58.5125 21.5674 58.5022 21.7629L54.9823 21.8041C54.972 21.7012 54.972 21.6086 54.972 21.5056Z" />
</symbol>

<symbol id="dollar" viewBox="0 0 39 48">
<path d="M2 2H37V46H2V2Z" stroke="black" fill="#FFF" stroke-width="4"  />
<path d="M23.2542 38V36.7661C26.3077 36.5017 28 34.9153 28 32.3301C28 30.1267 26.7676 28.7656 24.3487 28.2661L23.2542 28.0507V25.0052C24.0452 25.1423 24.6246 25.818 24.6522 26.5916H27.7425C27.7149 24.2609 25.9858 22.6158 23.2542 22.3416V21H21.9298V22.3318C18.959 22.5668 17.2483 24.1532 17.2483 26.6895C17.2483 28.8341 18.4808 30.2442 20.8353 30.7926L21.9298 31.0472V34.2005C20.9457 34.0927 20.2375 33.4171 20.1915 32.5553H17C17.0092 35.0622 18.8211 36.6192 21.9298 36.7857V38H23.2542ZM24.8545 32.7316C24.8545 33.5639 24.2567 34.1221 23.2542 34.2005V31.2823C24.3303 31.4977 24.8545 31.9775 24.8545 32.7316ZM20.4766 26.3566C20.4766 25.6025 21.0744 25.0444 21.9298 24.9856V27.7667C20.9824 27.5611 20.4766 27.0714 20.4766 26.3566Z" />
</symbol>

<symbol id="circle" viewBox="0 0 40 53">
<path d="M2 51V17.9097L19.5324 2.62508L38 17.9397V51H2Z" stroke="black" stroke-width="4" fill="#FFF"/>
<circle cx="20" cy="24" r="5" stroke-width="4" fill="#FFF"/>
</symbol>

<symbol id="bird" viewBox="0 0 48 56">
<path d="M22.6273 51.9247C10.8481 43.511 3.35716 30.3774 2.0857 15.9972L23.6239 2.35639L45.8748 15.994C44.1284 30.4277 36.3962 43.4887 24.5344 51.9614L23.6066 52.6242L22.6273 51.9247Z" stroke="black" stroke-width="4" fill="#FFF" />
<path d="M17.5 24.8995L22.508 29.9075L32.4075 20.008"  stroke-width="4" fill="#FFF"/>
</symbol>

<symbol id="halfmoon" viewBox="0 0 16 20">
<path d="M5.5 0C3.68 0 1.97 0.5 0.5 1.35C3.49 3.08 5.5 6.3 5.5 10C5.5 13.7 3.49 16.92 0.5 18.65C1.97 19.5 3.68 20 5.5 20C11.02 20 15.5 15.52 15.5 10C15.5 4.48 11.02 0 5.5 0Z" />
</symbol>

<symbol id="sun" viewBox="0 0 24 24">
<path d="M12 4.875C8.07127 4.875 4.875 8.07127 4.875 12C4.875 15.9287 8.07127 19.125 12 19.125C15.9287 19.125 19.125 15.9287 19.125 12C19.125 8.07127 15.9287 4.875 12 4.875ZM12 17.625C10.8875 17.625 9.79994 17.2951 8.87492 16.677C7.94989 16.0589 7.22892 15.1804 6.80318 14.1526C6.37743 13.1248 6.26604 11.9938 6.48308 10.9026C6.70012 9.81147 7.23585 8.80919 8.02252 8.02252C8.80919 7.23585 9.81147 6.70012 10.9026 6.48308C11.9938 6.26604 13.1248 6.37743 14.1526 6.80318C15.1804 7.22892 16.0589 7.94989 16.677 8.87492C17.2951 9.79994 17.625 10.8875 17.625 12C17.6233 13.4913 17.0301 14.9211 15.9756 15.9756C14.9211 17.0301 13.4913 17.6233 12 17.625Z" />
<path d="M11.25 0.75H12.75V3H11.25V0.75Z" />
<path d="M11.25 21H12.75V23.25H11.25V21Z" />
<path d="M21 11.25H23.25V12.75H21V11.25Z" />
<path d="M0.75 11.25H3V12.75H0.75V11.25Z" />
<path d="M18.2197 19.2804L19.2804 18.2197L20.7804 19.7197L19.7197 20.7804L18.2197 19.2804Z" />
<path d="M3.21973 4.28041L4.28041 3.21973L5.78041 4.71973L4.71973 5.78041L3.21973 4.28041Z" />
<path d="M3.2196 19.7197L4.7196 18.2197L5.78029 19.2803L4.28029 20.7803L3.2196 19.7197Z" />
<path d="M18.2197 4.71973L19.7197 3.21973L20.7804 4.28041L19.2804 5.78041L18.2197 4.71973Z" />
</symbol>
</defs>
</svg>

<svg xmlns="http://www.w3.org/2000/svg">
    <defs>
        <symbol id="logo" viewBox="0 0 62 28">
            <path d="M14 12.68 9.686.525H7.279l-4.23 11.784c-.721 2.038-1.06 2.409-2.131 2.604v.505h4.127v-.505c-1.41-.216-1.616-.669-1.008-2.562l.668-2.028h4.611l.762 2.264c.556 1.688.299 2.13-1.009 2.326v.505h6.917v-.505c-1.04-.195-1.4-.586-1.987-2.233zM4.931 9.603 6.98 3.324l2.1 6.279H4.932z" /><path d="m20 5.053-4.549.556v.474l.525.164c.566.196.659.34.659 1.009v6.546c0 .72-.165.947-1.184 1.111v.505h5.887v-.505c-1.132-.185-1.317-.401-1.317-1.214V8.306c.453-.422 1.492-.69 2.511-.69.587 0 1.184.093 1.483.206.123-.247.236-.68.236-1.122 0-.926-.442-1.667-1.369-1.667-1.04 0-1.904.875-2.892 2.923L20 5.053zM29.563 15.624c1.852 0 3.396-.71 4.158-1.802v-.504c-.515.504-1.41.844-2.408.844-2.049 0-3.706-1.616-3.706-4.446 0-2.357 1.235-3.86 3.098-3.86.556 0 1.05.134 1.441.381-.02-.01-.03-.01-.051-.01-.793 0-1.441.658-1.441 1.492s.669 1.493 1.513 1.493c.823 0 1.513-.649 1.513-1.555 0-1.482-1.41-2.665-3.89-2.665-3.274 0-5.682 2.182-5.682 5.331 0 3.263 2.419 5.3 5.455 5.3zM38.446 0l-4.57.556v.473l.525.175c.576.196.659.34.659 1.009V13.78c0 .741-.186.957-1.184 1.132v.505h5.599v-.505c-.895-.164-1.03-.35-1.03-1.07V7.369c.31-.576.958-.967 1.802-.967 1.163 0 1.842.69 1.842 2.068v5.373c0 .72-.154.916-1.029 1.07v.505h5.599v-.505c-1.019-.175-1.194-.39-1.194-1.132V8.275c0-2.223-1.41-3.283-3.5-3.283-1.739 0-3.005.792-3.54 1.955L38.445 0zM15.18 17.43l-4.55.556v.473l.526.165c.576.195.658.34.658 1.008v6.526c0 .74-.185.957-1.183 1.132v.504h5.599v-.504c-.896-.154-1.03-.35-1.03-1.07v-6.474c.31-.566.896-.968 1.73-.968 1.08 0 1.698.68 1.698 2.048v5.393c0 .72-.124.916-1.02 1.07v.505h5.435v-.504c-.895-.154-1.03-.35-1.03-1.07v-5.744c0-.288-.02-.535-.071-.782.319-.556.936-.916 1.77-.916 1.091 0 1.73.68 1.73 2.048v5.393c0 .72-.135.906-1.03 1.07v.505h5.599v-.504c-1.009-.175-1.184-.391-1.184-1.132V20.63c0-2.172-1.348-3.263-3.396-3.263-1.719 0-3.047.824-3.55 1.987-.371-1.287-1.586-1.987-3.202-1.987-1.75 0-3.005.824-3.5 1.976V17.43zM36.002 28c3.314 0 5.794-2.203 5.794-5.362 0-3.222-2.46-5.27-5.753-5.27-3.304 0-5.784 2.192-5.784 5.352 0 3.232 2.46 5.28 5.743 5.28zm.072-.68c-1.38 0-2.233-1.77-2.233-4.713 0-2.84.74-4.56 2.14-4.56 1.37 0 2.223 1.76 2.223 4.704 0 2.84-.74 4.57-2.13 4.57zM42.754 19.766l3.088 8.049h1.853l2.943-7.627c.638-1.657.927-1.945 1.75-2.11v-.514H48.95v.514c1.163.165 1.297.494.813 2.028l-1.626 4.878-1.626-4.899c-.474-1.513-.34-1.852.854-2.007v-.514H41.18v.514c.813.175 1.09.463 1.574 1.688zM51.586 22.7c0 3.272 2.419 5.3 5.486 5.3 1.914 0 3.478-.69 4.23-1.822l-.01-.504c-.515.525-1.38.906-2.388.906-2.08 0-3.613-1.513-3.88-4.19h6.411c.021-.174.052-.442.052-.71 0-2.552-1.709-4.312-4.56-4.312-3.21 0-5.341 2.203-5.341 5.332zm3.386-1.194c0-2.213.71-3.459 1.956-3.459 1.09 0 1.585 1.174 1.585 3.006 0 .298 0 .514-.01.71l-3.52.041c-.011-.103-.011-.195-.011-.298z" />
        </symbol>

        <symbol id="dollar" viewBox="0 0 39 48">
            <path d="M2 2h35v44H2V2z" fill="#FFF" stroke="#000" stroke-width="4"/><path d="M23.254 38v-1.234C26.308 36.502 28 34.916 28 32.33c0-2.203-1.232-3.564-3.651-4.064l-1.095-.215v-3.046c.791.137 1.37.813 1.398 1.587h3.09c-.027-2.331-1.756-3.976-4.488-4.25V21H21.93v1.332c-2.971.235-4.682 1.821-4.682 4.357 0 2.145 1.233 3.555 3.587 4.104l1.095.254V34.2c-.984-.107-1.692-.783-1.738-1.645H17c.01 2.507 1.821 4.064 4.93 4.23V38h1.324zm1.6-5.268c0 .832-.597 1.39-1.6 1.468v-2.918c1.076.216 1.6.695 1.6 1.45zm-4.377-6.375c0-.755.597-1.313 1.453-1.371v2.78c-.948-.205-1.453-.695-1.453-1.41z" />
        </symbol>

        <symbol id="circle" viewBox="0 0 40 53">
            <path d="M2 51V17.91L19.532 2.625 38 17.94V51H2z" fill="#FFF" stroke="#000" stroke-width="4"/><circle cx="20" cy="24" r="5"  fill="#FFF" stroke-width="4"/>>
        </symbol>

        <symbol id="bird" viewBox="0 0 48 56">
            <path d="M22.627 51.925A49.513 49.513 0 0 1 2.086 15.997l21.538-13.64 22.25 13.637a51.858 51.858 0 0 1-21.34 35.967l-.927.663-.98-.7z" stroke="#000" fill="#FFF" stroke-width="4"/><path d="m17.5 24.9 5.008 5.008 9.9-9.9" fill="#FFF" stroke-width="4"/>
        </symbol>

        <symbol id="halfmoon" viewBox="0 0 16 20">
            <path d="M5.5 0C3.68 0 1.97.5.5 1.35c2.99 1.73 5 4.95 5 8.65s-2.01 6.92-5 8.65c1.47.85 3.18 1.35 5 1.35 5.52 0 10-4.48 10-10S11.02 0 5.5 0z" fill="#444"/>
        </symbol>

        <symbol id="sun" viewBox="0 0 24 24">
            <path d="M12 4.875A7.133 7.133 0 0 0 4.875 12 7.133 7.133 0 0 0 12 19.125 7.133 7.133 0 0 0 19.125 12 7.133 7.133 0 0 0 12 4.875zm0 12.75A5.625 5.625 0 1 1 17.625 12 5.632 5.632 0 0 1 12 17.625zM11.25.75h1.5V3h-1.5V.75zM11.25 21h1.5v2.25h-1.5V21zM21 11.25h2.25v1.5H21v-1.5zM.75 11.25H3v1.5H.75v-1.5zM18.22 19.28l1.06-1.06 1.5 1.5-1.06 1.06-1.5-1.5zM3.22 4.28l1.06-1.06 1.5 1.5-1.06 1.06-1.5-1.5zM3.22 19.72l1.5-1.5 1.06 1.06-1.5 1.5-1.06-1.06zM18.22 4.72l1.5-1.5 1.06 1.06-1.5 1.5-1.06-1.06z" fill="#FFF"/>
        </symbol>
    </defs>
</svg>
